icons/bs.svg

<?xml version="1.0" ?>
<svg xmlns="http://www.w3.org/2000/svg" xmlns:ev="http://www.w3.org/2001/xml-events" xmlns:xlink="http://www.w3.org/1999/xlink" baseProfile="full" height="600px" version="1.1" viewBox="519.5349637879535 -1029.12 9209.286863183934 12298.24" width="450px">
	<defs/>
	<path d="M 2030.0,10224.0 C 1985.0,10204.0 1953.0,10174.0 1929.0,10128.0 C 1917.0,10104.0 1895.0,10083.0 1870.0,10070.0 C 1849.0,10059.0 1827.0,10044.0 1823.0,10037.0 C 1809.0,10013.0 1766.0,9990.0 1738.0,9990.0 C 1722.0,9990.0 1697.0,9978.0 1677.0,9960.0 L 1642.0,9930.0 L 1482.0,9930.0 C 1394.0,9930.0 1315.0,9927.0 1306.0,9924.0 C 1282.0,9915.0 1287.0,9894.0 1323.0,9853.0 C 1341.0,9832.0 1363.0,9803.0 1372.0,9789.0 C 1385.0,9768.0 1402.0,9760.0 1451.0,9751.0 C 1532.0,9735.0 1604.0,9686.0 1647.0,9618.0 C 1679.0,9567.0 1680.0,9563.0 1679.0,9460.0 C 1678.0,9402.0 1675.0,9344.0 1671.0,9330.0 C 1666.0,9312.0 1670.0,9296.0 1684.0,9274.0 L 1704.0,9242.0 L 1780.0,9280.0 C 1850.0,9315.0 1916.0,9339.0 2000.0,9358.0 C 2025.0,9364.0 2035.0,9372.0 2035.0,9386.0 C 2035.0,9401.0 2018.0,9411.0 1955.0,9432.0 C 1856.0,9465.0 1860.0,9464.0 1860.0,9438.0 C 1860.0,9406.0 1849.0,9393.0 1818.0,9385.0 C 1795.0,9379.0 1790.0,9382.0 1785.0,9402.0 C 1782.0,9415.0 1786.0,9441.0 1794.0,9460.0 C 1803.0,9483.0 1806.0,9512.0 1803.0,9548.0 C 1796.0,9607.0 1812.0,9629.0 1860.0,9630.0 C 1905.0,9630.0 1915.0,9616.0 1902.0,9574.0 C 1896.0,9554.0 1893.0,9533.0 1895.0,9529.0 C 1898.0,9525.0 1923.0,9519.0 1950.0,9515.0 C 1996.0,9509.0 2001.0,9505.0 2007.0,9479.0 C 2013.0,9449.0 2052.0,9410.0 2075.0,9410.0 C 2097.0,9410.0 2140.0,9350.0 2140.0,9319.0 C 2140.0,9299.0 2148.0,9285.0 2165.0,9274.0 C 2179.0,9265.0 2196.0,9247.0 2203.0,9234.0 C 2210.0,9222.0 2239.0,9186.0 2269.0,9155.0 C 2323.0,9099.0 2325.0,9098.0 2369.0,9103.0 C 2406.0,9107.0 2419.0,9104.0 2441.0,9085.0 C 2456.0,9073.0 2487.0,9060.0 2510.0,9056.0 C 2558.0,9049.0 2657.0,8986.0 2666.0,8958.0 C 2669.0,8948.0 2709.0,8914.0 2756.0,8884.0 C 2802.0,8853.0 2859.0,8806.0 2884.0,8779.0 C 2909.0,8751.0 2937.0,8730.0 2949.0,8730.0 C 2971.0,8730.0 3006.0,8689.0 3039.0,8623.0 C 3051.0,8600.0 3069.0,8576.0 3080.0,8570.0 C 3112.0,8553.0 3176.0,8460.0 3194.0,8405.0 C 3203.0,8378.0 3233.0,8320.0 3260.0,8277.0 L 3311.0,8198.0 L 3306.0,8028.0 C 3302.0,7891.0 3298.0,7855.0 3285.0,7841.0 C 3273.0,7826.0 3271.0,7809.0 3276.0,7753.0 C 3281.0,7699.0 3279.0,7678.0 3267.0,7659.0 C 3259.0,7646.0 3248.0,7613.0 3245.0,7587.0 C 3237.0,7538.0 3226.0,7521.0 3184.0,7493.0 C 3165.0,7481.0 3160.0,7469.0 3160.0,7436.0 C 3161.0,7414.0 3166.0,7385.0 3173.0,7373.0 L 3186.0,7350.0 L 3220.0,7370.0 C 3239.0,7381.0 3284.0,7404.0 3320.0,7421.0 C 3383.0,7451.0 3388.0,7452.0 3485.0,7446.0 C 3651.0,7435.0 3737.0,7420.0 3767.0,7396.0 L 3795.0,7375.0 L 3655.0,7368.0 C 3333.0,7353.0 3206.0,7338.0 3179.0,7311.0 C 3175.0,7308.0 3169.0,7295.0 3165.0,7283.0 C 3159.0,7260.0 3159.0,7260.0 3252.0,7266.0 C 3303.0,7269.0 3368.0,7279.0 3395.0,7288.0 C 3434.0,7301.0 3480.0,7305.0 3608.0,7304.0 C 3698.0,7303.0 3799.0,7299.0 3834.0,7295.0 C 3897.0,7289.0 3897.0,7289.0 3998.0,7194.0 C 4054.0,7141.0 4100.0,7093.0 4100.0,7086.0 C 4100.0,7080.0 4115.0,7043.0 4134.0,7004.0 C 4164.0,6942.0 4174.0,6930.0 4226.0,6899.0 C 4295.0,6858.0 4328.0,6808.0 4337.0,6728.0 C 4340.0,6699.0 4353.0,6659.0 4365.0,6640.0 C 4378.0,6621.0 4396.0,6565.0 4406.0,6516.0 L 4424.0,6428.0 L 4490.0,6383.0 C 4544.0,6348.0 4559.0,6331.0 4568.0,6302.0 C 4575.0,6281.0 4607.0,6235.0 4643.0,6195.0 C 4717.0,6114.0 4758.0,6040.0 4766.0,5972.0 C 4776.0,5893.0 4827.0,5769.0 4883.0,5691.0 C 4903.0,5664.0 4914.0,5632.0 4920.0,5587.0 C 4930.0,5523.0 4944.0,5491.0 5006.0,5399.0 C 5023.0,5374.0 5047.0,5320.0 5060.0,5279.0 C 5073.0,5238.0 5087.0,5201.0 5092.0,5195.0 C 5096.0,5190.0 5100.0,5172.0 5100.0,5155.0 C 5100.0,5132.0 5113.0,5110.0 5150.0,5068.0 C 5190.0,5023.0 5200.0,5005.0 5200.0,4976.0 C 5200.0,4951.0 5206.0,4938.0 5219.0,4930.0 C 5243.0,4917.0 5276.0,4864.0 5283.0,4824.0 C 5290.0,4788.0 5392.0,4606.0 5427.0,4569.0 C 5440.0,4554.0 5468.0,4535.0 5488.0,4526.0 C 5517.0,4513.0 5535.0,4492.0 5570.0,4432.0 C 5632.0,4325.0 5768.0,4148.0 5812.0,4116.0 C 5838.0,4097.0 5867.0,4058.0 5906.0,3986.0 C 5940.0,3923.0 5972.0,3877.0 5987.0,3869.0 C 6022.0,3850.0 6040.0,3812.0 6027.0,3783.0 C 6012.0,3750.0 5983.0,3754.0 5975.0,3790.0 C 5970.0,3813.0 5963.0,3820.0 5945.0,3820.0 C 5925.0,3820.0 5922.0,3814.0 5918.0,3779.0 C 5914.0,3739.0 5917.0,3735.0 5961.0,3701.0 C 5988.0,3681.0 6014.0,3649.0 6023.0,3629.0 C 6036.0,3597.0 6035.0,3590.0 6019.0,3559.0 C 5997.0,3518.0 5995.0,3477.0 6014.0,3461.0 C 6022.0,3454.0 6031.0,3432.0 6035.0,3412.0 C 6045.0,3353.0 6053.0,3347.0 6120.0,3342.0 L 6183.0,3337.0 L 6177.0,3274.0 L 6172.0,3212.0 L 6229.0,3191.0 C 6260.0,3180.0 6314.0,3169.0 6350.0,3167.0 C 6386.0,3164.0 6422.0,3159.0 6431.0,3155.0 C 6444.0,3150.0 6454.0,3160.0 6472.0,3192.0 L 6495.0,3235.0 L 6568.0,3238.0 C 6638.0,3241.0 6644.0,3239.0 6753.0,3186.0 C 6814.0,3156.0 6892.0,3110.0 6925.0,3083.0 C 6980.0,3039.0 6991.0,3023.0 7063.0,2880.0 C 7133.0,2740.0 7142.0,2717.0 7149.0,2645.0 C 7158.0,2565.0 7182.0,2509.0 7266.0,2380.0 C 7278.0,2361.0 7303.0,2298.0 7320.0,2240.0 C 7354.0,2123.0 7354.0,2076.0 7316.0,2035.0 C 7295.0,2013.0 7267.0,1957.0 7240.0,1882.0 C 7233.0,1864.0 7210.0,1836.0 7189.0,1819.0 C 7167.0,1802.0 7150.0,1781.0 7150.0,1771.0 C 7150.0,1747.0 7099.0,1672.0 7053.0,1627.0 C 7022.0,1598.0 7014.0,1583.0 7018.0,1564.0 C 7026.0,1523.0 7044.0,1531.0 7105.0,1600.0 C 7111.0,1606.0 7138.0,1626.0 7165.0,1643.0 C 7200.0,1666.0 7223.0,1691.0 7243.0,1728.0 C 7259.0,1756.0 7275.0,1780.0 7281.0,1780.0 C 7293.0,1780.0 7292.0,1743.0 7279.0,1717.0 C 7262.0,1684.0 7188.0,1609.0 7163.0,1599.0 C 7148.0,1594.0 7140.0,1582.0 7140.0,1567.0 C 7140.0,1534.0 7110.0,1510.0 7069.0,1510.0 C 7027.0,1510.0 7014.0,1502.0 7001.0,1467.0 C 6991.0,1441.0 6988.0,1440.0 6928.0,1442.0 C 6860.0,1445.0 6846.0,1454.0 6861.0,1482.0 C 6866.0,1492.0 6869.0,1500.0 6867.0,1500.0 C 6864.0,1500.0 6776.0,1480.0 6670.0,1455.0 C 6564.0,1430.0 6476.0,1410.0 6473.0,1410.0 C 6471.0,1410.0 6470.0,1393.0 6472.0,1372.0 C 6475.0,1339.0 6473.0,1335.0 6449.0,1332.0 C 6432.0,1330.0 6412.0,1338.0 6395.0,1353.0 L 6367.0,1376.0 L 6327.0,1333.0 C 6305.0,1309.0 6281.0,1290.0 6273.0,1290.0 C 6265.0,1290.0 6217.0,1276.0 6167.0,1258.0 C 6084.0,1230.0 6069.0,1221.0 6015.0,1164.0 C 5969.0,1117.0 5932.0,1091.0 5863.0,1057.0 C 5765.0,1009.0 5719.0,978.0 5655.0,919.0 C 5628.0,895.0 5592.0,875.0 5545.0,860.0 C 5451.0,830.0 5366.0,783.0 5346.0,750.0 C 5323.0,711.0 5251.0,702.0 5181.0,730.0 C 5152.0,741.0 5128.0,750.0 5126.0,750.0 C 5121.0,750.0 5138.0,658.0 5152.0,610.0 C 5163.0,573.0 5170.0,564.0 5193.0,562.0 C 5213.0,559.0 5220.0,553.0 5220.0,537.0 C 5220.0,522.0 5244.0,491.0 5286.0,450.0 C 5322.0,414.0 5370.0,359.0 5391.0,327.0 C 5422.0,283.0 5444.0,263.0 5490.0,240.0 C 5523.0,223.0 5561.0,210.0 5575.0,210.0 C 5595.0,210.0 5604.0,202.0 5616.0,174.0 C 5633.0,133.0 5632.0,133.0 5765.0,166.0 C 5854.0,188.0 5874.0,187.0 5990.0,156.0 C 6042.0,142.0 6095.0,128.0 6107.0,125.0 C 6118.0,123.0 6133.0,108.0 6139.0,93.0 C 6145.0,77.0 6161.0,50.0 6174.0,33.0 L 6198.0,0.0 L 6241.0,35.0 C 6265.0,54.0 6302.0,75.0 6322.0,80.0 C 6351.0,88.0 6360.0,97.0 6365.0,120.0 C 6369.0,137.0 6380.0,152.0 6392.0,156.0 C 6403.0,159.0 6420.0,180.0 6430.0,203.0 C 6463.0,277.0 6514.0,349.0 6540.0,358.0 C 6554.0,363.0 6574.0,384.0 6585.0,403.0 C 6597.0,425.0 6616.0,444.0 6634.0,450.0 C 6651.0,456.0 6678.0,474.0 6695.0,490.0 C 6731.0,525.0 6796.0,540.0 6909.0,540.0 C 6962.0,540.0 6998.0,534.0 7026.0,521.0 C 7057.0,507.0 7071.0,505.0 7079.0,513.0 C 7112.0,546.0 7066.0,574.0 6980.0,572.0 C 6944.0,571.0 6904.0,574.0 6890.0,579.0 C 6876.0,584.0 6853.0,591.0 6838.0,594.0 C 6784.0,606.0 6810.0,640.0 6872.0,640.0 C 6889.0,640.0 6922.0,651.0 6944.0,664.0 C 7004.0,699.0 7060.0,701.0 7099.0,668.0 C 7117.0,652.0 7149.0,638.0 7174.0,635.0 C 7216.0,628.0 7218.0,627.0 7223.0,587.0 C 7228.0,552.0 7225.0,541.0 7204.0,519.0 C 7191.0,505.0 7182.0,487.0 7185.0,479.0 C 7188.0,471.0 7176.0,456.0 7155.0,442.0 C 7114.0,416.0 7108.0,395.0 7145.0,404.0 C 7189.0,415.0 7216.0,428.0 7229.0,444.0 C 7241.0,458.0 7246.0,458.0 7277.0,445.0 C 7310.0,431.0 7313.0,432.0 7345.0,456.0 C 7363.0,470.0 7381.0,487.0 7384.0,495.0 C 7387.0,503.0 7414.0,526.0 7445.0,546.0 C 7485.0,573.0 7504.0,580.0 7512.0,572.0 C 7519.0,565.0 7534.0,566.0 7562.0,576.0 C 7584.0,584.0 7622.0,590.0 7646.0,590.0 C 7684.0,590.0 7691.0,594.0 7705.0,620.0 C 7723.0,655.0 7723.0,655.0 7756.0,634.0 C 7785.0,614.0 7802.0,620.0 7871.0,673.0 C 7922.0,712.0 7993.0,728.0 8130.0,731.0 C 8297.0,736.0 8304.0,734.0 8334.0,690.0 C 8351.0,664.0 8368.0,650.0 8382.0,650.0 C 8395.0,650.0 8423.0,628.0 8456.0,592.0 C 8499.0,544.0 8517.0,532.0 8557.0,522.0 C 8603.0,511.0 8606.0,512.0 8626.0,537.0 C 8645.0,559.0 8658.0,563.0 8719.0,568.0 C 8788.0,573.0 8790.0,572.0 8799.0,546.0 C 8805.0,532.0 8807.0,507.0 8804.0,491.0 C 8799.0,469.0 8805.0,455.0 8830.0,426.0 C 8856.0,396.0 8869.0,390.0 8900.0,390.0 C 8935.0,390.0 8939.0,393.0 8950.0,425.0 C 8964.0,467.0 8959.0,476.0 8920.0,485.0 C 8885.0,493.0 8886.0,490.0 8907.0,535.0 C 8923.0,569.0 8923.0,571.0 8902.0,593.0 C 8876.0,620.0 8872.0,675.0 8895.0,684.0 C 8903.0,687.0 8910.0,699.0 8910.0,710.0 C 8910.0,724.0 8903.0,730.0 8887.0,730.0 C 8866.0,730.0 8862.0,738.0 8846.0,810.0 C 8831.0,874.0 8819.0,901.0 8784.0,946.0 C 8760.0,977.0 8740.0,1007.0 8740.0,1012.0 C 8740.0,1017.0 8715.0,1087.0 8685.0,1166.0 C 8655.0,1246.0 8626.0,1339.0 8620.0,1373.0 C 8605.0,1456.0 8459.0,1728.0 8384.0,1812.0 C 8354.0,1845.0 8330.0,1878.0 8330.0,1885.0 C 8330.0,1908.0 8189.0,2180.0 8177.0,2180.0 C 8170.0,2180.0 8142.0,2191.0 8114.0,2204.0 C 8071.0,2224.0 8057.0,2239.0 8014.0,2306.0 C 7956.0,2400.0 7890.0,2589.0 7890.0,2665.0 C 7890.0,2740.0 7881.0,2759.0 7839.0,2780.0 C 7798.0,2801.0 7780.0,2826.0 7780.0,2859.0 C 7780.0,2870.0 7763.0,2894.0 7743.0,2912.0 C 7624.0,3017.0 7590.0,3054.0 7590.0,3079.0 C 7590.0,3133.0 7560.0,3229.0 7526.0,3286.0 C 7475.0,3371.0 7357.0,3484.0 7293.0,3509.0 C 7254.0,3524.0 7219.0,3552.0 7153.0,3618.0 C 7097.0,3674.0 7054.0,3709.0 7035.0,3714.0 C 6931.0,3739.0 6936.0,3735.0 6894.0,3815.0 C 6861.0,3880.0 6847.0,3895.0 6803.0,3921.0 C 6774.0,3938.0 6742.0,3963.0 6731.0,3979.0 C 6718.0,3997.0 6681.0,4018.0 6619.0,4044.0 C 6511.0,4088.0 6457.0,4122.0 6380.0,4195.0 C 6267.0,4302.0 6088.0,4412.0 6009.0,4424.0 C 5958.0,4431.0 5941.0,4449.0 5896.0,4537.0 C 5882.0,4565.0 5846.0,4615.0 5817.0,4647.0 C 5760.0,4709.0 5700.0,4797.0 5675.0,4856.0 C 5667.0,4875.0 5644.0,4912.0 5625.0,4938.0 C 5605.0,4964.0 5558.0,5033.0 5520.0,5093.0 C 5477.0,5160.0 5422.0,5227.0 5376.0,5273.0 C 5299.0,5347.0 5282.0,5376.0 5225.0,5528.0 C 5210.0,5568.0 5179.0,5624.0 5156.0,5653.0 C 5051.0,5783.0 5012.0,5847.0 5005.0,5896.0 C 5001.0,5923.0 4985.0,5978.0 4970.0,6018.0 C 4947.0,6076.0 4930.0,6102.0 4887.0,6143.0 C 4839.0,6188.0 4826.0,6210.0 4787.0,6305.0 C 4762.0,6366.0 4732.0,6447.0 4720.0,6485.0 C 4707.0,6524.0 4684.0,6581.0 4669.0,6612.0 C 4653.0,6644.0 4640.0,6680.0 4640.0,6694.0 C 4640.0,6707.0 4600.0,6799.0 4551.0,6898.0 C 4483.0,7035.0 4460.0,7091.0 4455.0,7136.0 C 4441.0,7242.0 4379.0,7315.0 4242.0,7384.0 C 4181.0,7415.0 4127.0,7482.0 4110.0,7548.0 C 4098.0,7597.0 4064.0,7632.0 4003.0,7660.0 C 3972.0,7674.0 3955.0,7690.0 3939.0,7722.0 C 3911.0,7777.0 3848.0,7862.0 3789.0,7925.0 C 3764.0,7953.0 3722.0,8000.0 3698.0,8031.0 C 3657.0,8082.0 3653.0,8093.0 3647.0,8158.0 C 3643.0,8198.0 3644.0,8240.0 3650.0,8254.0 C 3659.0,8278.0 3657.0,8281.0 3622.0,8295.0 C 3588.0,8309.0 3581.0,8319.0 3557.0,8380.0 C 3535.0,8437.0 3530.0,8466.0 3530.0,8537.0 C 3530.0,8588.0 3523.0,8648.0 3513.0,8683.0 C 3499.0,8733.0 3498.0,8752.0 3508.0,8800.0 C 3515.0,8831.0 3520.0,8875.0 3520.0,8898.0 C 3520.0,8921.0 3529.0,8954.0 3540.0,8972.0 C 3554.0,8996.0 3561.0,9033.0 3566.0,9102.0 L 3573.0,9198.0 L 3541.0,9214.0 C 3524.0,9223.0 3499.0,9248.0 3485.0,9269.0 C 3468.0,9297.0 3445.0,9316.0 3406.0,9333.0 C 3360.0,9354.0 3346.0,9367.0 3320.0,9413.0 C 3283.0,9480.0 3210.0,9549.0 3109.0,9614.0 C 3051.0,9652.0 3022.0,9680.0 2984.0,9733.0 C 2953.0,9777.0 2909.0,9822.0 2863.0,9857.0 C 2780.0,9920.0 2754.0,9949.0 2745.0,9991.0 C 2739.0,10016.0 2726.0,10027.0 2658.0,10061.0 C 2614.0,10083.0 2566.0,10115.0 2553.0,10131.0 L 2529.0,10160.0 L 2501.0,10139.0 L 2474.0,10119.0 L 2278.0,10180.0 C 2171.0,10213.0 2079.0,10240.0 2074.0,10240.0 C 2069.0,10239.0 2049.0,10232.0 2030.0,10224.0" fill="pink"/>
</svg>

<?xml version="1.0" standalone="no"?>
<!DOCTYPE svg PUBLIC "-//W3C//DTD SVG 20010904//EN"
 "http://www.w3.org/TR/2001/REC-SVG-20010904/DTD/svg10.dtd">
<svg version="1.0" xmlns="http://www.w3.org/2000/svg"
 width="1024.000000pt" height="1024.000000pt" viewBox="0 0 1024.000000 1024.000000"
 preserveAspectRatio="xMidYMid meet">
<metadata>
Created by potrace 1.10, written by Peter Selinger 2001-2011
</metadata>
<g transform="translate(0.000000,1024.000000) scale(0.100000,-0.100000)"
fill="#000000" stroke="none">
<path d="M2030 10224 c-45 -20 -77 -50 -101 -96 -12 -24 -34 -45 -59 -58 -21
-11 -43 -26 -47 -33 -14 -24 -57 -47 -85 -47 -16 0 -41 -12 -61 -30 l-35 -30
-160 0 c-88 0 -167 -3 -176 -6 -24 -9 -19 -30 17 -71 18 -21 40 -50 49 -64 13
-21 30 -29 79 -38 81 -16 153 -65 196 -133 32 -51 33 -55 32 -158 -1 -58 -4
-116 -8 -130 -5 -18 -1 -34 13 -56 l20 -32 76 38 c70 35 136 59 220 78 25 6
35 14 35 28 0 15 -17 25 -80 46 -99 33 -95 32 -95 6 0 -32 -11 -45 -42 -53
-23 -6 -28 -3 -33 17 -3 13 1 39 9 58 9 23 12 52 9 88 -7 59 9 81 57 82 45 0
55 -14 42 -56 -6 -20 -9 -41 -7 -45 3 -4 28 -10 55 -14 46 -6 51 -10 57 -36 6
-30 45 -69 68 -69 22 0 65 -60 65 -91 0 -20 8 -34 25 -45 14 -9 31 -27 38 -40
7 -12 36 -48 66 -79 54 -56 56 -57 100 -52 37 4 50 1 72 -18 15 -12 46 -25 69
-29 48 -7 147 -70 156 -98 3 -10 43 -44 90 -74 46 -31 103 -78 128 -105 25
-28 53 -49 65 -49 22 0 57 -41 90 -107 12 -23 30 -47 41 -53 32 -17 96 -110
114 -165 9 -27 39 -85 66 -128 l51 -79 -5 -170 c-4 -137 -8 -173 -21 -187 -12
-15 -14 -32 -9 -88 5 -54 3 -75 -9 -94 -8 -13 -19 -46 -22 -72 -8 -49 -19 -66
-61 -94 -19 -12 -24 -24 -24 -57 1 -22 6 -51 13 -63 l13 -23 34 20 c19 11 64
34 100 51 63 30 68 31 165 25 166 -11 252 -26 282 -50 l28 -21 -140 -7 c-322
-15 -449 -30 -476 -57 -4 -3 -10 -16 -14 -28 -6 -23 -6 -23 87 -17 51 3 116
13 143 22 39 13 85 17 213 16 90 -1 191 -5 226 -9 63 -6 63 -6 164 -101 56
-53 102 -101 102 -108 0 -6 15 -43 34 -82 30 -62 40 -74 92 -105 69 -41 102
-91 111 -171 3 -29 16 -69 28 -88 13 -19 31 -75 41 -124 l18 -88 66 -45 c54
-35 69 -52 78 -81 7 -21 39 -67 75 -107 74 -81 115 -155 123 -223 10 -79 61
-203 117 -281 20 -27 31 -59 37 -104 10 -64 24 -96 86 -188 17 -25 41 -79 54
-120 13 -41 27 -78 32 -84 4 -5 8 -23 8 -40 0 -23 13 -45 50 -87 40 -45 50
-63 50 -92 0 -25 6 -38 19 -46 24 -13 57 -66 64 -106 7 -36 109 -218 144 -255
13 -15 41 -34 61 -43 29 -13 47 -34 82 -94 62 -107 198 -284 242 -316 26 -19
55 -58 94 -130 34 -63 66 -109 81 -117 35 -19 53 -57 40 -86 -15 -33 -44 -29
-52 7 -5 23 -12 30 -30 30 -20 0 -23 -6 -27 -41 -4 -40 -1 -44 43 -78 27 -20
53 -52 62 -72 13 -32 12 -39 -4 -70 -22 -41 -24 -82 -5 -98 8 -7 17 -29 21
-49 10 -59 18 -65 85 -70 l63 -5 -6 -63 -5 -62 57 -21 c31 -11 85 -22 121 -24
36 -3 72 -8 81 -12 13 -5 23 5 41 37 l23 43 73 3 c70 3 76 1 185 -52 61 -30
139 -76 172 -103 55 -44 66 -60 138 -203 70 -140 79 -163 86 -235 9 -80 33
-136 117 -265 12 -19 37 -82 54 -140 34 -117 34 -164 -4 -205 -21 -22 -49 -78
-76 -153 -7 -18 -30 -46 -51 -63 -22 -17 -39 -38 -39 -48 0 -24 -51 -99 -97
-144 -31 -29 -39 -44 -35 -63 8 -41 26 -33 87 36 6 6 33 26 60 43 35 23 58 48
78 85 16 28 32 52 38 52 12 0 11 -37 -2 -63 -17 -33 -91 -108 -116 -118 -15
-5 -23 -17 -23 -32 0 -33 -30 -57 -71 -57 -42 0 -55 -8 -68 -43 -10 -26 -13
-27 -73 -25 -68 3 -82 12 -67 40 5 10 8 18 6 18 -3 0 -91 -20 -197 -45 -106
-25 -194 -45 -197 -45 -2 0 -3 -17 -1 -38 3 -33 1 -37 -23 -40 -17 -2 -37 6
-54 21 l-28 23 -40 -43 c-22 -24 -46 -43 -54 -43 -8 0 -56 -14 -106 -32 -83
-28 -98 -37 -152 -94 -46 -47 -83 -73 -152 -107 -98 -48 -144 -79 -208 -138
-27 -24 -63 -44 -110 -59 -94 -30 -179 -77 -199 -110 -23 -39 -95 -48 -165
-20 -29 11 -53 20 -55 20 -5 0 12 -92 26 -140 11 -37 18 -46 41 -48 20 -3 27
-9 27 -25 0 -15 24 -46 66 -87 36 -36 84 -91 105 -123 31 -44 53 -64 99 -87
33 -17 71 -30 85 -30 20 0 29 -8 41 -36 17 -41 16 -41 149 -8 89 22 109 21
225 -10 52 -14 105 -28 117 -31 11 -2 26 -17 32 -32 6 -16 22 -43 35 -60 l24
-33 43 35 c24 19 61 40 81 45 29 8 38 17 43 40 4 17 15 32 27 36 11 3 28 24
38 47 33 74 84 146 110 155 14 5 34 26 45 45 12 22 31 41 49 47 17 6 44 24 61
40 36 35 101 50 214 50 53 0 89 -6 117 -19 31 -14 45 -16 53 -8 33 33 -13 61
-99 59 -36 -1 -76 2 -90 7 -14 5 -37 12 -52 15 -54 12 -28 46 34 46 17 0 50
11 72 24 60 35 116 37 155 4 18 -16 50 -30 75 -33 42 -7 44 -8 49 -48 5 -35 2
-46 -19 -68 -13 -14 -22 -32 -19 -40 3 -8 -9 -23 -30 -37 -41 -26 -47 -47 -10
-38 44 11 71 24 84 40 12 14 17 14 48 1 33 -14 36 -13 68 11 18 14 36 31 39
39 3 8 30 31 61 51 40 27 59 34 67 26 7 -7 22 -6 50 4 22 8 60 14 84 14 38 0
45 4 59 30 18 35 18 35 51 14 29 -20 46 -14 115 39 51 39 122 55 259 58 167 5
174 3 204 -41 17 -26 34 -40 48 -40 13 0 41 -22 74 -58 43 -48 61 -60 101 -70
46 -11 49 -10 69 15 19 22 32 26 93 31 69 5 71 4 80 -22 6 -14 8 -39 5 -55 -5
-22 1 -36 26 -65 26 -30 39 -36 70 -36 35 0 39 3 50 35 14 42 9 51 -30 60 -35
8 -34 5 -13 50 16 34 16 36 -5 58 -26 27 -30 82 -7 91 8 3 15 15 15 26 0 14
-7 20 -23 20 -21 0 -25 8 -41 80 -15 64 -27 91 -62 136 -24 31 -44 61 -44 66
0 5 -25 75 -55 154 -30 80 -59 173 -65 207 -15 83 -161 355 -236 439 -30 33
-54 66 -54 73 0 23 -141 295 -153 295 -7 0 -35 11 -63 24 -43 20 -57 35 -100
102 -58 94 -124 283 -124 359 0 75 -9 94 -51 115 -41 21 -59 46 -59 79 0 11
-17 35 -37 53 -119 105 -153 142 -153 167 0 54 -30 150 -64 207 -51 85 -169
198 -233 223 -39 15 -74 43 -140 109 -56 56 -99 91 -118 96 -104 25 -99 21
-141 101 -33 65 -47 80 -91 106 -29 17 -61 42 -72 58 -13 18 -50 39 -112 65
-108 44 -162 78 -239 151 -113 107 -292 217 -371 229 -51 7 -68 25 -113 113
-14 28 -50 78 -79 110 -57 62 -117 150 -142 209 -8 19 -31 56 -50 82 -20 26
-67 95 -105 155 -43 67 -98 134 -144 180 -77 74 -94 103 -151 255 -15 40 -46
96 -69 125 -105 130 -144 194 -151 243 -4 27 -20 82 -35 122 -23 58 -40 84
-83 125 -48 45 -61 67 -100 162 -25 61 -55 142 -67 180 -13 39 -36 96 -51 127
-16 32 -29 68 -29 82 0 13 -40 105 -89 204 -68 137 -91 193 -96 238 -14 106
-76 179 -213 248 -61 31 -115 98 -132 164 -12 49 -46 84 -107 112 -31 14 -48
30 -64 62 -28 55 -91 140 -150 203 -25 28 -67 75 -91 106 -41 51 -45 62 -51
127 -4 40 -3 82 3 96 9 24 7 27 -28 41 -34 14 -41 24 -65 85 -22 57 -27 86
-27 157 0 51 -7 111 -17 146 -14 50 -15 69 -5 117 7 31 12 75 12 98 0 23 9 56
20 74 14 24 21 61 26 130 l7 96 -32 16 c-17 9 -42 34 -56 55 -17 28 -40 47
-79 64 -46 21 -60 34 -86 80 -37 67 -110 136 -211 201 -58 38 -87 66 -125 119
-31 44 -75 89 -121 124 -83 63 -109 92 -118 134 -6 25 -19 36 -87 70 -44 22
-92 54 -105 70 l-24 29 -28 -21 -27 -20 -196 61 c-107 33 -199 60 -204 60 -5
-1 -25 -8 -44 -16z"/>
</g>
</svg>
